svgs/the_wolfs_stash.svg

<svg width="192" height="192" viewBox="0 0 192 192" fill="none" xmlns="http://www.w3.org/2000/svg">
<path d="M49.6472 22.801C56.6054 26.4726 63.0434 31.2276 67.4877 39.9691C69.0813 43.1033 72.7653 44.7654 76.0886 43.6172C89.573 38.9583 101.72 39.0607 116.035 43.8078C119.308 44.893 122.881 43.2139 124.429 40.1333C128.876 31.287 135.351 26.4955 142.353 22.801C144.508 21.6638 147.166 22.0585 148.858 23.812C170.198 45.9287 162.068 72.1973 157.375 79.6655C155.625 82.4492 154.64 84.5695 154.097 86.145C153.308 88.4321 155.153 89.9373 157.559 90.1978C158.447 90.294 159.274 90.4498 160.107 90.6998C162.207 91.3296 163.301 93.4922 163.442 95.6796C163.732 100.174 164.713 103.603 166.216 107.654C167.316 110.617 165.847 114.317 162.808 113.449C162.306 113.306 161.771 113.118 161.181 112.892C171.201 117.53 170.968 129.596 168.793 130.544C168.39 130.719 167.669 130.83 166.763 130.893C161.911 131.233 160.091 135.048 164.513 137.075L164.826 137.219C164.903 137.254 164.918 137.358 164.857 137.416C156.145 145.65 148.786 148.134 137.556 147.956C134.591 147.908 132.169 150.471 133.976 152.821C135.755 155.132 135.532 158.452 133.004 159.906C119.782 167.513 110.557 169.662 95.9336 170C81.3116 169.662 72.1929 167.513 58.9951 159.908C56.4685 158.452 56.2454 155.132 58.0236 152.821C59.8315 150.471 57.4087 147.908 54.4442 147.956C43.2138 148.134 35.855 145.65 27.1431 137.416C27.0816 137.358 27.0969 137.254 27.1738 137.219L27.4874 137.075C31.9088 135.048 30.0893 131.233 25.2371 130.893C24.3307 130.83 23.6102 130.719 23.2071 130.544C21.0322 129.596 20.7989 117.53 30.8193 112.892C30.2289 113.118 29.6938 113.306 29.1918 113.449C26.1526 114.317 24.6841 110.617 25.7839 107.654C27.2874 103.603 28.2678 100.174 28.5581 95.6796C28.6994 93.4922 29.7933 91.3296 31.8929 90.6998C32.7263 90.4498 33.5534 90.294 34.4413 90.1978C36.8468 89.9373 38.6924 88.4321 37.9032 86.145C37.3596 84.5695 36.3746 82.4492 34.6254 79.6655C29.9325 72.1973 21.802 45.9287 43.1425 23.812C44.8344 22.0585 47.4921 21.6638 49.6472 22.801Z" stroke="black" stroke-width="12" stroke-linejoin="round"/>
<path d="M71 44C71 44 90.0396 60.2507 92.2157 62.0042C94.3918 63.7577 97.4904 63.7766 99.6878 62.0498L121.5 44" stroke="black" stroke-width="12" stroke-linecap="round" stroke-linejoin="round"/>
<path d="M74.5752 103.778L74.0883 108.647" stroke="black" stroke-width="8" stroke-linecap="round"/>
<path d="M73.6013 77.9706L76.5229 77.4836" stroke="black" stroke-width="6" stroke-linecap="round"/>
<path d="M116.451 103.778L116.938 108.647" stroke="black" stroke-width="8" stroke-linecap="round"/>
<path d="M117.425 77.9706L114.503 77.4836" stroke="black" stroke-width="6" stroke-linecap="round"/>
<path d="M81.629 126C82.5259 125.112 84.0183 124.439 86.4122 124.229C87.7654 124.274 88.9308 124.408 89.9886 124.69C93.5482 125.64 97.7556 125.602 101.319 124.666C102.331 124.4 103.451 124.272 104.765 124.229C107.158 124.439 108.651 125.112 109.548 126M81.629 126C80.2996 127.316 80.2783 129.105 80.569 130.559C81.0559 132.993 88.594 139.354 95.6638 139.81C102.734 139.354 110.121 132.993 110.608 130.559C110.899 129.105 110.877 127.316 109.548 126M81.629 126L91.1288 115.17C93.5272 112.436 97.7873 112.447 100.171 115.194L109.548 126" stroke="black" stroke-width="6" stroke-linecap="round"/>
<path d="M69.7059 139.811C71.9019 144.307 73.9101 146.598 79.8645 149.122C80.5473 149.411 81.2862 149.549 82.0278 149.549M82.0278 149.549L94.8782 148.157C95.3002 148.111 95.726 148.111 96.1482 148.155L109.485 149.549M82.0278 149.549C89.4274 154.858 92.1685 158.829 95.5131 167C99.0636 158.818 102.015 154.92 109.485 149.549M121.807 139.811C119.611 144.307 117.603 146.598 111.649 149.122C110.966 149.411 110.227 149.549 109.485 149.549" stroke="black" stroke-width="6" stroke-linecap="round"/>
<path d="M49.1267 49C48.9806 58.1753 48.301 57.9837 52.6267 64.5" stroke="black" stroke-width="8" stroke-linecap="round"/>
<path d="M142.5 49C142.646 58.1753 143.326 57.9837 139 64.5" stroke="black" stroke-width="8" stroke-linecap="round"/>
</svg>

<svg xmlns="http://www.w3.org/2000/svg" width="192" height="192" fill="none" viewBox="0 0 192 192"><path stroke="#000" stroke-linejoin="round" stroke-width="12" d="M49.647 22.801c6.958 3.672 13.396 8.427 17.84 17.168 1.594 3.134 5.278 4.796 8.602 3.648 13.484-4.659 25.631-4.556 39.946.19 3.273 1.086 6.846-.593 8.394-3.674 4.447-8.846 10.922-13.638 17.924-17.332 2.155-1.137 4.813-.742 6.505 1.011 21.34 22.117 13.21 48.385 8.517 55.854-1.75 2.783-2.735 4.904-3.278 6.479-.789 2.287 1.056 3.792 3.462 4.053a14 14 0 0 1 2.548.502c2.1.63 3.194 2.792 3.335 4.98.29 4.494 1.271 7.923 2.774 11.974 1.1 2.963-.369 6.663-3.408 5.795a20 20 0 0 1-1.627-.557c10.02 4.638 9.787 16.704 7.612 17.652-.403.175-1.124.286-2.03.349-4.852.34-6.672 4.155-2.25 6.182l.313.144a.12.12 0 0 1 .031.197c-8.712 8.234-16.071 10.718-27.301 10.54-2.965-.048-5.387 2.515-3.58 4.865 1.779 2.311 1.556 5.631-.972 7.085-13.222 7.607-22.447 9.756-37.07 10.094-14.622-.338-23.741-2.487-36.939-10.092-2.526-1.456-2.75-4.776-.971-7.087 1.807-2.35-.615-4.913-3.58-4.865-11.23.178-18.589-2.306-27.3-10.54a.12.12 0 0 1 .03-.197l.313-.144c4.422-2.027 2.602-5.842-2.25-6.182-.906-.063-1.627-.174-2.03-.349-2.175-.948-2.408-13.014 7.612-17.652a20 20 0 0 1-1.627.557c-3.04.868-4.508-2.832-3.408-5.795 1.503-4.051 2.484-7.48 2.774-11.974.141-2.188 1.235-4.35 3.335-4.98a14 14 0 0 1 2.548-.502c2.406-.26 4.251-1.766 3.462-4.053-.543-1.575-1.528-3.696-3.278-6.48-4.692-7.468-12.823-33.736 8.517-55.853 1.692-1.754 4.35-2.148 6.505-1.011Z"/><path stroke="#000" stroke-linecap="round" stroke-linejoin="round" stroke-width="12" d="M71 44s19.04 16.25 21.216 18.004a6 6 0 0 0 7.472.046L121.5 44"/><path stroke="#000" stroke-linecap="round" stroke-width="8" d="m74.575 103.778-.487 4.869"/><path stroke="#000" stroke-linecap="round" stroke-width="6" d="m73.601 77.97 2.922-.486"/><path stroke="#000" stroke-linecap="round" stroke-width="8" d="m116.451 103.778.487 4.869"/><path stroke="#000" stroke-linecap="round" stroke-width="6" d="m117.425 77.97-2.922-.486M81.629 126c.897-.888 2.39-1.561 4.783-1.771 1.353.045 2.519.179 3.577.461 3.56.95 7.767.912 11.33-.024 1.012-.266 2.132-.394 3.446-.437 2.393.21 3.886.883 4.783 1.771m-27.919 0c-1.33 1.316-1.35 3.105-1.06 4.559.487 2.434 8.025 8.795 15.095 9.251 7.07-.456 14.457-6.817 14.944-9.251.291-1.454.269-3.243-1.06-4.559m-27.919 0 9.5-10.83c2.398-2.734 6.658-2.723 9.042.024L109.548 126m-39.842 13.811c2.196 4.496 4.204 6.787 10.159 9.311a5.55 5.55 0 0 0 2.163.427m0 0 12.85-1.392a6 6 0 0 1 1.27-.002l13.337 1.394m-27.457 0c7.4 5.309 10.14 9.28 13.485 17.451 3.55-8.182 6.502-12.08 13.972-17.451m12.322-9.738c-2.196 4.496-4.204 6.787-10.158 9.311a5.6 5.6 0 0 1-2.164.427"/><path stroke="#000" stroke-linecap="round" stroke-width="8" d="M49.127 49c-.146 9.175-.826 8.984 3.5 15.5M142.5 49c.146 9.175.826 8.984-3.5 15.5"/></svg>
